!!!!SEGMENT: pl-stab--10a--001-003_rodowski-aleksander--litanie-lauretane-de-b-v-m-sancta-maria.krn
!!!cenid: 18xx:3433
!!!COM: Rodowski, Aleksander
!!!COM-rismID: pe30009627
!!!CDT: <1790->1810
!!!CNT: Polish
!!!OPR: Litanie Lauretane de B.V.M
!!!OTL: Sancta Maria
!!!OMV: 003
!!!PDT:
!!!AGN:
!!!YEC: Copyright 2022 Narodowy Instytut Fryderyka Chopina (https://polishscores.org)
!!!YEM: License CC-BY-4.0 (https://creativecommons.org/licenses/by/4.0)
!!!SMS-siglum: PL-STAb
!!!SMS-shelfmark: 10a
!!!SMS-shelfwork: 001-003 M
!!!SMS-variant:
!!!SMS-altvar:
!!!NIFC-rismSourceID: 301050674
!!!NIFC-rismChildID: 301050674
!!!NIFC-islandoraID: pl-stab:2273
!!!URL-pdf-islandora: https://repozytorium.nifc.pl/islandora/object/pl-stab%3A2273/datastream/PDF/view
!!!URL-scan: https://polish.musicsources.pl/pl/lokalizacje/galeria/rekopisy/4397 @EN{Scan on Polish Music Sources Website} @PL{Skany w portalu Dziedzictwo Muzyki Polskiej w otwartym dostępie}
!!!IIIF:
!!!ONB-nifc: UWAGA: części Litanii: 1. Kyrie, 2. Pater de caelis, 3. Sancta Maria, 4. Mater Christi, 5. Mater amabilis, 6. Virgo prudentissima, 7. Rosa mistica, 8. Salus infirmorum, 9. Regina angelorum, 10. Agnus Dei
!!!AIN: 1 bass 2 cor 1 organ 1 soprn 1 tenor 2 violn
!!!key: C
**kern	**kern	**dynam	**kern	**dynam	**kern	**kern	**kern	**text	**kern	**kern
*	*group3	*	*group3	*	*group2	*group2	*group2	*	*group1	*group1
*part8	*part7	*	*part6	*	*part5	*part4	*part3	*	*part2	*part1
*staff8	*staff7	*	*staff6	*	*staff5	*staff4	*staff3	*	*staff2	*staff1
*I"Organo	*I"Violino Secundo	*	*I"Violino Primo	*	*I"Baſso	*I"Tenore	*I"Canto	*	*I"Cornu Secundo in G.	*I"Cornu Primo in G.
*I'org	*I'vl 2	*	*I'vl 1	*	*I'B	*I'T	*I'S	*	*I'cor 2 in G	*I'cor 1 in G
*Iorgan	*Ivioln	*	*Ivioln	*	*Ibass	*Itenor	*Isoprn	*	*Icor	*Icor
*ICklav	*ICstr	*	*ICstr	*	*ICvox	*ICvox	*ICvox	*	*ICbras	*ICbras
*IGcont	*IGacmp	*	*IGacmp	*	*IGcoro	*IGcoro	*IGcoro	*	*IGacmp	*IGacmp
*	*clefG2	*	*clefG2	*	*	*	*clefC1	*	*	*
*	*k[]	*	*k[]	*	*	*	*k[]	*	*	*
*	*C:	*	*C:	*	*	*	*C:	*	*	*
*	*M3/4	*	*M3/4	*	*	*	*M3/4	*	*	*
=1	=1	=1	=1	=1	=1	=1	=1	=1	=1	=1
*	*tremolo	*	*	*	*	*	*	*	*	*
!LO:TX:t=P:problem=źródło niekompletne - brak skanu	!LO:TX:a:Bi:t=Andante	!	!LO:TX:a:Bi:t=Andante	!	!LO:TX:a:t=Sancta Maria Tacet	!LO:TX:a:t=Sancta Maria Tacet	!LO:TX:a:i:t=Solo	!	!LO:TX:a:t=Sancta Maria Tacet	!LO:TX:a:t=Sancta\nMaria Ta=\ncet
2.ryy	8eL 8G/	.	4.g/	.	2.ryy	2.ryy	0.r	.	2.ryy	2.ryy
.	8e 8G/	.	.	.	.	.	.	.	.	.
.	8e 8G/	.	.	.	.	.	.	.	.	.
.	8e 8G/	.	8cc\L	.	.	.	.	.	.	.
.	8e 8G/	.	8ee\	.	.	.	.	.	.	.
.	8eJ 8G/	.	8gg\J	.	.	.	.	.	.	.
=2	=2	=2	=2	=2	=2	=2	=2	=2	=2	=2
2.ryy	8fL 8G/	.	8gg\L	.	2.ryy	2.ryy	.	.	2.ryy	2.ryy
.	8f 8G/	.	8ff#X\J	.	.	.	.	.	.	.
.	8f 8G/	.	[4ffn\	.	.	.	.	.	.	.
.	8f 8G/	.	.	.	.	.	.	.	.	.
.	8f 8G/	.	16ff\LL]	.	.	.	.	.	.	.
.	.	.	16dd\	.	.	.	.	.	.	.
.	8fJ 8G/	.	16ee\	.	.	.	.	.	.	.
.	.	.	16ff\JJ	.	.	.	.	.	.	.
*	*Xtremolo	*	*	*	*	*	*	*	*	*
=3	=3	=3	=3	=3	=3	=3	=3	=3	=3	=3
2.ryy	16e/LL	.	4.gg\	.	2.ryy	2.ryy	.	.	2.ryy	2.ryy
.	16c/	.	.	.	.	.	.	.	.	.
.	16B/	.	.	.	.	.	.	.	.	.
.	16c/JJ	.	.	.	.	.	.	.	.	.
.	16B/LL	.	.	.	.	.	.	.	.	.
.	16c/	.	.	.	.	.	.	.	.	.
.	16d/	.	16ff\LL	.	.	.	.	.	.	.
.	16e/JJ	.	16aa\JJ	.	.	.	.	.	.	.
.	16e/LL	.	16gg\LL	.	.	.	.	.	.	.
.	16c/	.	16ee\	.	.	.	.	.	.	.
.	16d/	.	16ff\	.	.	.	.	.	.	.
.	16f/JJ	.	16dd\JJ	.	.	.	.	.	.	.
=4	=4	=4	=4	=4	=4	=4	=4	=4	=4	=4
2.ryy	4f/	.	4dd\	.	2.ryy	2.ryy	.	.	2.ryy	2.ryy
.	16e/LL	.	16cc/LL	.	.	.	.	.	.	.
.	16cc/	.	16cc/	.	.	.	.	.	.	.
.	16g/	.	16g/	.	.	.	.	.	.	.
.	16e/JJ	.	16e/JJ	.	.	.	.	.	.	.
.	8c/	.	8c/	.	.	.	.	.	.	.
.	8r	.	8r	.	.	.	.	.	.	.
=5	=5	=5	=5	=5	=5	=5	=5	=5	=5	=5
*	*tremolo	*	*	*	*	*	*	*	*	*
2.ryy	8eL 8G/	.	4.cc\	.	2.ryy	2.ryy	0.r	.	2.ryy	2.ryy
.	8e 8G/	.	.	.	.	.	.	.	.	.
.	8e 8G/	.	.	.	.	.	.	.	.	.
.	8e 8G/	.	16ee\LL	.	.	.	.	.	.	.
.	.	.	16gg\JJ	.	.	.	.	.	.	.
.	8e 8G/	.	16ccc\LL	.	.	.	.	.	.	.
.	.	.	16bb\	.	.	.	.	.	.	.
.	8eJ 8G/	.	16aa\	.	.	.	.	.	.	.
.	.	.	16gg\JJ	.	.	.	.	.	.	.
!	!	!	!LO:LB:g=original	!	!	!	!	!	!	!
=6	=6	=6	=6	=6	=6	=6	=6	=6	=6	=6
2.ryy	8fL 8G/	.	16gg\LL	.	2.ryy	2.ryy	.	.	2.ryy	2.ryy
.	.	.	16aa\	.	.	.	.	.	.	.
.	8f 8G/	.	16ee\	.	.	.	.	.	.	.
.	.	.	16gg\JJ	.	.	.	.	.	.	.
.	8f 8G/	.	8.ff\L	.	.	.	.	.	.	.
.	8f 8G/	.	.	.	.	.	.	.	.	.
.	.	.	16ee\Jk	.	.	.	.	.	.	.
.	8f 8G/	.	16b\LL	.	.	.	.	.	.	.
.	.	.	16dd\	.	.	.	.	.	.	.
.	8fJ 8G/	.	16ff\	.	.	.	.	.	.	.
.	.	.	16aa\JJ	.	.	.	.	.	.	.
*	*Xtremolo	*	*	*	*	*	*	*	*	*
=7	=7	=7	=7	=7	=7	=7	=7	=7	=7	=7
2.ryy	16e/LL	.	4.gg\	.	2.ryy	2.ryy	.	.	2.ryy	2.ryy
.	16c/	.	.	.	.	.	.	.	.	.
.	16B/	.	.	.	.	.	.	.	.	.
.	16c/JJ	.	.	.	.	.	.	.	.	.
.	16B/LL	.	.	.	.	.	.	.	.	.
.	16c/	.	.	.	.	.	.	.	.	.
.	16d/	.	16ff#X\LL	.	.	.	.	.	.	.
.	16e/JJ	.	16gg\JJ	.	.	.	.	.	.	.
!	!LO:LB:g=original	!	!	!	!	!	!	!	!	!
.	16f/LL	.	16aa\LL	.	.	.	.	.	.	.
.	16g/	.	16ee\	.	.	.	.	.	.	.
.	16a/	.	16ffn\	.	.	.	.	.	.	.
.	16f/JJ	.	16dd\JJ	.	.	.	.	.	.	.
=8	=8	=8	=8	=8	=8	=8	=8	=8	=8	=8
2.ryy	4e/	.	4cc\	.	2.ryy	2.ryy	.	.	2.ryy	2.ryy
.	4d/	.	4b\	.	.	.	.	.	.	.
.	4r	.	4r	.	.	.	.	.	.	.
=9	=9	=9	=9	=9	=9	=9	=9	=9	=9	=9
2.ryy	16e/LL	.	[4g/	.	2.ryy	2.ryy	0.r	.	2.ryy	2.ryy
.	16g/	.	.	.	.	.	.	.	.	.
.	16cc/	.	.	.	.	.	.	.	.	.
.	16g/JJ	.	.	.	.	.	.	.	.	.
*	*rep	*	*	*	*	*	*	*	*	*
.	16e/LL	.	16g/LL]	.	.	.	.	.	.	.
.	16g/	.	16cc/	.	.	.	.	.	.	.
.	16cc/	.	16ee/	.	.	.	.	.	.	.
.	16g/JJ	.	16gg/JJ	.	.	.	.	.	.	.
*	*Xrep	*	*	*	*	*	*	*	*	*
*	*rep	*	*	*	*	*	*	*	*	*
.	16e/LL	.	16ff\LL	.	.	.	.	.	.	.
.	16g/	.	16ee\	.	.	.	.	.	.	.
.	16cc/	.	16dd\	.	.	.	.	.	.	.
.	16g/JJ	.	16cc\JJ	.	.	.	.	.	.	.
*	*Xrep	*	*	*	*	*	*	*	*	*
=10	=10	=10	=10	=10	=10	=10	=10	=10	=10	=10
2.ryy	16f/LL	.	8.ff\L	.	2.ryy	2.ryy	.	.	2.ryy	2.ryy
.	16g/	.	.	.	.	.	.	.	.	.
.	16b/	.	.	.	.	.	.	.	.	.
.	16g/JJ	.	16dd\Jk	.	.	.	.	.	.	.
.	16f/LL	.	4b\	.	.	.	.	.	.	.
.	16g/	.	.	.	.	.	.	.	.	.
.	16b/	.	.	.	.	.	.	.	.	.
.	16dd/JJ	.	.	.	.	.	.	.	.	.
.	16b/LL	.	4r	.	.	.	.	.	.	.
.	16g/	.	.	.	.	.	.	.	.	.
.	16f/	.	.	.	.	.	.	.	.	.
.	16d/JJ	.	.	.	.	.	.	.	.	.
=11	=11	=11	=11	=11	=11	=11	=11	=11	=11	=11
2.ryy	16e/LL	.	4.cc\	.	2.ryy	2.ryy	.	.	2.ryy	2.ryy
.	16g/	.	.	.	.	.	.	.	.	.
.	16cc/	.	.	.	.	.	.	.	.	.
.	16g/JJ	.	.	.	.	.	.	.	.	.
*	*rep	*	*	*	*	*	*	*	*	*
.	16e/LL	.	.	.	.	.	.	.	.	.
.	16g/	.	.	.	.	.	.	.	.	.
.	16cc/	.	16ee\LL	.	.	.	.	.	.	.
.	16g/JJ	.	16gg\JJ	.	.	.	.	.	.	.
*	*Xrep	*	*	*	*	*	*	*	*	*
*	*rep	*	*	*	*	*	*	*	*	*
.	16e/LL	.	16ff\LL	.	.	.	.	.	.	.
.	16g/	.	16ee\	.	.	.	.	.	.	.
.	16cc/	.	16dd\	.	.	.	.	.	.	.
.	16g/JJ	.	16cc\JJ	.	.	.	.	.	.	.
*	*Xrep	*	*	*	*	*	*	*	*	*
=12	=12	=12	=12	=12	=12	=12	=12	=12	=12	=12
2.ryy	16f/LL	.	8.ff\L	.	2.ryy	2.ryy	.	.	2.ryy	2.ryy
.	16g/	.	.	.	.	.	.	.	.	.
.	16b/	.	.	.	.	.	.	.	.	.
.	16g/JJ	.	16dd\Jk	.	.	.	.	.	.	.
.	16f/LL	.	4b\	.	.	.	.	.	.	.
.	16g/	.	.	.	.	.	.	.	.	.
.	16b/	.	.	.	.	.	.	.	.	.
.	16dd/JJ	.	.	.	.	.	.	.	.	.
.	16b/LL	.	4r	.	.	.	.	.	.	.
.	16g/	.	.	.	.	.	.	.	.	.
.	16f/	.	.	.	.	.	.	.	.	.
.	16d/JJ	.	.	.	.	.	.	.	.	.
=13	=13	=13	=13	=13	=13	=13	=13	=13	=13	=13
2.ryy	16e/LL	.	4cc\	.	2.ryy	2.ryy	0.r	.	2.ryy	2.ryy
.	16g/	.	.	.	.	.	.	.	.	.
.	16cc/	.	.	.	.	.	.	.	.	.
.	16g/JJ	.	.	.	.	.	.	.	.	.
*	*rep	*	*	*	*	*	*	*	*	*
.	16e/LL	.	16cc\LL	.	.	.	.	.	.	.
.	16g/	.	16ee\	.	.	.	.	.	.	.
.	16cc/	.	16gg\	.	.	.	.	.	.	.
.	16g/JJ	.	16ccc\JJ	.	.	.	.	.	.	.
*	*Xrep	*	*	*	*	*	*	*	*	*
!	!	!	!LO:LB:g=original	!	!	!	!	!	!	!
.	16f/LL	.	16aa\LL	.	.	.	.	.	.	.
.	16g/	.	16ff\	.	.	.	.	.	.	.
.	16b/	.	16dd\	.	.	.	.	.	.	.
.	16g/JJ	.	16aa\JJ	.	.	.	.	.	.	.
!	!LO:PB:g=original	!	!	!	!	!	!	!	!	!
=14	=14	=14	=14	=14	=14	=14	=14	=14	=14	=14
2.ryy	16e/LL	.	4gg\	.	2.ryy	2.ryy	.	.	2.ryy	2.ryy
.	16g/	.	.	.	.	.	.	.	.	.
.	16cc/	.	.	.	.	.	.	.	.	.
.	16g/JJ	.	.	.	.	.	.	.	.	.
*	*rep	*	*	*	*	*	*	*	*	*
.	16e/LL	.	16gg\LL	.	.	.	.	.	.	.
.	16g/	.	16ee\	.	.	.	.	.	.	.
.	16cc/	.	16cc\	.	.	.	.	.	.	.
.	16g/JJ	.	16gg\JJ	.	.	.	.	.	.	.
*	*Xrep	*	*	*	*	*	*	*	*	*
.	16f/LL	.	16aa\LL	.	.	.	.	.	.	.
.	16a/	.	16ee\	.	.	.	.	.	.	.
.	16dd/	.	16ff\	.	.	.	.	.	.	.
.	16a/JJ	.	16dd\JJ	.	.	.	.	.	.	.
=15	=15	=15	=15	=15	=15	=15	=15	=15	=15	=15
.	.	.	8qqdd/	.	.	.	.	.	.	.
2.ryy	16e/LL	.	16cc\LL	.	2.ryy	2.ryy	.	.	2.ryy	2.ryy
.	16g/	.	16b\	.	.	.	.	.	.	.
.	16e/	.	16cc\	.	.	.	.	.	.	.
.	16g/JJ	.	16g\JJ	.	.	.	.	.	.	.
*	*rep	*	*	*	*	*	*	*	*	*
.	16e/LL	.	4ee\	.	.	.	.	.	.	.
.	16g/	.	.	.	.	.	.	.	.	.
.	16e/	.	.	.	.	.	.	.	.	.
.	16g/JJ	.	.	.	.	.	.	.	.	.
*	*Xrep	*	*	*	*	*	*	*	*	*
.	16f/LL	.	4dd\	.	.	.	.	.	.	.
.	16g/	.	.	.	.	.	.	.	.	.
.	16f/	.	.	.	.	.	.	.	.	.
.	16g/JJ	.	.	.	.	.	.	.	.	.
=16	=16	=16	=16	=16	=16	=16	=16	=16	=16	=16
2.ryy	16e/LL	.	4cc\	.	2.ryy	2.ryy	.	.	2.ryy	2.ryy
.	16g/	.	.	.	.	.	.	.	.	.
.	16cc/	.	.	.	.	.	.	.	.	.
.	16g/JJ	.	.	.	.	.	.	.	.	.
*	*rep	*	*	*	*	*	*	*	*	*
.	16e/LL	.	16cc\LL	.	.	.	.	.	.	.
.	16g/	.	16ee\	.	.	.	.	.	.	.
.	16cc/	.	16gg\	.	.	.	.	.	.	.
.	16g/JJ	.	16ccc\JJ	.	.	.	.	.	.	.
*	*Xrep	*	*	*	*	*	*	*	*	*
.	16f/LL	.	16aa\LL	.	.	.	.	.	.	.
.	16g/	.	16ff\	.	.	.	.	.	.	.
.	16b/	.	16dd\	.	.	.	.	.	.	.
.	16g/JJ	.	16aa\JJ	.	.	.	.	.	.	.
=17	=17	=17	=17	=17	=17	=17	=17	=17	=17	=17
2.ryy	16e/LL	.	4gg\	.	2.ryy	2.ryy	1.r	.	2.ryy	2.ryy
.	16g/	.	.	.	.	.	.	.	.	.
.	16cc/	.	.	.	.	.	.	.	.	.
.	16g/JJ	.	.	.	.	.	.	.	.	.
*	*rep	*	*	*	*	*	*	*	*	*
.	16e/LL	.	16gg\LL	.	.	.	.	.	.	.
.	16g/	.	16ee\	.	.	.	.	.	.	.
.	16cc/	.	16cc\	.	.	.	.	.	.	.
.	16g/JJ	.	16gg\JJ	.	.	.	.	.	.	.
*	*Xrep	*	*	*	*	*	*	*	*	*
.	16f/LL	.	16aa\LL	.	.	.	.	.	.	.
.	16a/	.	16ee\	.	.	.	.	.	.	.
.	16dd/	.	16ff\	.	.	.	.	.	.	.
.	16a/JJ	.	16dd\JJ	.	.	.	.	.	.	.
=18	=18	=18	=18	=18	=18	=18	=18	=18	=18	=18
2.ryy	16e/LL	.	8g/L	.	2.ryy	2.ryy	.	.	2.ryy	2.ryy
.	16g/	.	.	.	.	.	.	.	.	.
.	16e/	.	8cc/J	.	.	.	.	.	.	.
.	16g/JJ	.	.	.	.	.	.	.	.	.
*	*	*	*2\right	*	*	*	*	*	*	*
.	16f/LL	.	2ddT\	.	.	.	.	.	.	.
.	16g/	.	.	.	.	.	.	.	.	.
.	16f/	.	.	.	.	.	.	.	.	.
.	16g/JJ	.	.	.	.	.	.	.	.	.
*	*rep	*	*	*	*	*	*	*	*	*
.	16f/LL	.	.	.	.	.	.	.	.	.
.	16g/	.	.	.	.	.	.	.	.	.
.	16f/	.	.	.	.	.	.	.	.	.
.	16g/JJ	.	.	.	.	.	.	.	.	.
*	*Xrep	*	*	*	*	*	*	*	*	*
=19	=19	=19	=19	=19	=19	=19	=19	=19	=19	=19
!	!	!	!LO:TX:t=P:problem=mixed beam	!	!	!	!	!	!	!
2.ryy	8.eL 8.G/	.	8.cc\L	.	2.ryy	2.ryy	2.r	.	2.ryy	2.ryy
.	16c/Jk	.	16c/Jk	.	.	.	.	.	.	.
.	4c/	.	4c/	.	.	.	.	.	.	.
.	4r	.	4r	.	.	.	.	.	.	.
!	!LO:LB:g=original	!	!	!	!	!	!	!	!	!
=20	=20	=20	=20	=20	=20	=20	=20	=20	=20	=20
*	*tremolo	*	*	*	*	*	*	*	*	*
!	!	!LO:DY:rj:t=p	!	!	!	!	!	!	!	!
2.ryy	8eL 8G/	p	4.g/	.	2.ryy	2.ryy	4.g\	San-	2.ryy	2.ryy
.	8e 8G/	.	.	.	.	.	.	.	.	.
.	8e 8G/	.	.	.	.	.	.	.	.	.
.	8e 8G/	.	8cc\L	.	.	.	8cc\	-cta	.	.
.	8e 8G/	.	8ee\	.	.	.	8ee\	.	.	.
.	8eJ 8G/	.	8gg\J	.	.	.	8gg\	Ma-	.	.
!	!	!	!LO:LB:g=original	!	!	!	!	!	!	!
=21	=21	=21	=21	=21	=21	=21	=21	=21	=21	=21
2.ryy	8fL 8G/	.	8gg\L	.	2.ryy	2.ryy	8gg\L	-ri-	2.ryy	2.ryy
.	8f 8G/	.	8ff#X\J	.	.	.	8ff#X\J	.	.	.
.	8f 8G/	.	8.ffn\L	.	.	.	4ffn\	-a	.	.
.	8f 8G/	.	.	.	.	.	.	.	.	.
.	.	.	16dd\Jk	.	.	.	.	.	.	.
.	8f 8G/	.	16b\LL	.	.	.	4r	.	.	.
.	.	.	16dd\	.	.	.	.	.	.	.
.	8fJ 8G/	.	16ff\	.	.	.	.	.	.	.
.	.	.	16aa\JJ	.	.	.	.	.	.	.
*	*Xtremolo	*	*	*	*	*	*	*	*	*
=22	=22	=22	=22	=22	=22	=22	=22	=22	=22	=22
2.ryy	16g/LL	.	4.gg\	.	2.ryy	2.ryy	4.gg\	O-	2.ryy	2.ryy
.	16c/	.	.	.	.	.	.	.	.	.
.	16B/	.	.	.	.	.	.	.	.	.
.	16c/JJ	.	.	.	.	.	.	.	.	.
.	16B/LL	.	.	.	.	.	.	.	.	.
.	16c/	.	.	.	.	.	.	.	.	.
.	16d/	.	16ff\LL	.	.	.	16ff\LL	.	.	.
.	16f/JJ	.	16aa\JJ	.	.	.	16aa\JJ	.	.	.
.	16e/LL	.	16gg\LL	.	.	.	16gg\LL	-ra	.	.
.	16c/	.	16ee\	.	.	.	16ee\JJ	.	.	.
.	16d/	.	16ff\	.	.	.	16ff\LL	pro	.	.
.	16f/JJ	.	16dd\JJ	.	.	.	16dd\JJ	.	.	.
=23	=23	=23	=23	=23	=23	=23	=23	=23	=23	=23
2.ryy	4f/	.	4dd\	.	2.ryy	2.ryy	8dd\L	no-	2.ryy	2.ryy
.	.	.	.	.	.	.	8cc\J	.	.	.
.	8e/L	.	16b/LL	.	.	.	4cc\	-bis	.	.
.	.	.	16cc/	.	.	.	.	.	.	.
.	16g/L	.	16g/	.	.	.	.	.	.	.
.	16e/JJ	.	16e/JJ	.	.	.	.	.	.	.
.	4c/	.	4c/	.	.	.	4r	.	.	.
!	!	!	!	!	!	!	!LO:LB:g=original	!	!	!
=24	=24	=24	=24	=24	=24	=24	=24	=24	=24	=24
*	*tremolo	*	*	*	*	*	*	*	*	*
2.ryy	8eL 8G/	.	4.cc\	.	2.ryy	2.ryy	4.cc\	San-	2.ryy	2.ryy
.	8e 8G/	.	.	.	.	.	.	.	.	.
.	8e 8G/	.	.	.	.	.	.	.	.	.
.	8e 8G/	.	8cc\L	.	.	.	8cc\	-cta	.	.
.	8e 8G/	.	8ee\	.	.	.	8ee\	De-	.	.
.	8eJ 8G/	.	8gg\J	.	.	.	8gg\	-i	.	.
=25	=25	=25	=25	=25	=25	=25	=25	=25	=25	=25
2.ryy	8fL 8G/	.	16gg\LL	.	2.ryy	2.ryy	16gg\LL	ge-	2.ryy	2.ryy
.	.	.	16aa\	.	.	.	16aa\JJ	.	.	.
.	8f 8G/	.	16ee\	.	.	.	16ee\LL	-ni-	.	.
.	.	.	16gg\JJ	.	.	.	16gg\JJ	.	.	.
.	8f 8G/	.	8.ff\L	.	.	.	4ff\	trix	.	.
.	8f 8G/	.	.	.	.	.	.	.	.	.
.	.	.	16dd\Jk	.	.	.	.	.	.	.
.	8f 8G/	.	16b\LL	.	.	.	4r	.	.	.
.	.	.	16dd\	.	.	.	.	.	.	.
.	8fJ 8G/	.	16ff\	.	.	.	.	.	.	.
.	.	.	16aa\JJ	.	.	.	.	.	.	.
*	*Xtremolo	*	*	*	*	*	*	*	*	*
=26	=26	=26	=26	=26	=26	=26	=26	=26	=26	=26
2.ryy	16e/LL	.	4.gg\	.	2.ryy	2.ryy	4.gg\	O-	2.ryy	2.ryy
.	16c/	.	.	.	.	.	.	.	.	.
.	16B/	.	.	.	.	.	.	.	.	.
.	16c/JJ	.	.	.	.	.	.	.	.	.
.	16B/LL	.	.	.	.	.	.	.	.	.
.	16c/	.	.	.	.	.	.	.	.	.
.	16d/	.	16ff#X\LL	.	.	.	16ff#X\LL	.	.	.
.	16e/JJ	.	16gg\JJ	.	.	.	16gg\JJ	.	.	.
.	16f/LL	.	16aa\LL	.	.	.	16aa\LL	-ra	.	.
.	16g/	.	16ee\	.	.	.	16ee\JJ	.	.	.
.	16a/	.	16ffn\	.	.	.	16ffn\LL	pro	.	.
.	16f/JJ	.	16dd\JJ	.	.	.	16dd\JJ	.	.	.
=27	=27	=27	=27	=27	=27	=27	=27	=27	=27	=27
2.ryy	4e/	.	4cc\	f	2.ryy	2.ryy	4cc\	no-	2.ryy	2.ryy
.	16e/LL	.	16b\LL	.	.	.	4b\	-bis	.	.
.	16g/	.	16g\	.	.	.	.	.	.	.
.	16b/	.	16b\	.	.	.	.	.	.	.
.	16dd/JJ	.	16dd\JJ	.	.	.	.	.	.	.
.	4gg\	.	4gg\	.	.	.	4r	.	.	.
!	!	!	!LO:LB:g=original	!	!	!	!	!	!	!
=28	=28	=28	=28	=28	=28	=28	=28	=28	=28	=28
2.ryy	8r	p	8r	p	2.ryy	2.ryy	4.dd\	San-	2.ryy	2.ryy
.	8B/L	.	8g/L	.	.	.	.	.	.	.
.	8A/	.	8f/	.	.	.	.	.	.	.
.	8c/	.	8a/	.	.	.	16ee\LL	-cta	.	.
.	.	.	.	.	.	.	16ff#X\JJ	.	.	.
!	!	!	!	!	!	!	!LO:LB:g=original	!	!	!
.	8B/	.	8g/	.	.	.	16gg\LL	vir-	.	.
.	.	.	.	.	.	.	16ff#\JJ	.	.	.
.	8d/J	.	8b/J	.	.	.	16ee\LL	-go	.	.
.	.	.	.	.	.	.	16dd\JJ	.	.	.
!	!LO:LB:g=original	!	!	!	!	!	!	!	!	!
=29	=29	=29	=29	=29	=29	=29	=29	=29	=29	=29
2.ryy	4c/	.	4a/	f	2.ryy	2.ryy	8.cc\	vir-	2.ryy	2.ryy
.	.	.	.	.	.	.	16a\	-gi-	.	.
.	16a/LL	f	16cc/LL	.	.	.	4f/	-num	.	.
.	16g/	.	16b/	.	.	.	.	.	.	.
.	16f#X/	.	16a/	.	.	.	.	.	.	.
.	16e/JJ	.	16g/JJ	.	.	.	.	.	.	.
.	16d/LL	.	16f/LL	.	.	.	4r	.	.	.
.	16c/	.	16e/	.	.	.	.	.	.	.
.	16B/	.	16d/	.	.	.	.	.	.	.
.	16A/JJ	.	16c/JJ	.	.	.	.	.	.	.
=30	=30	=30	=30	=30	=30	=30	=30	=30	=30	=30
!	!	!LO:DY:rj	!	!	!	!	!	!	!	!
2.ryy	8G/L	p	8B/L	p	2.ryy	2.ryy	4.dd\	O-	2.ryy	2.ryy
.	8B/	.	8g/	.	.	.	.	.	.	.
.	8A/	.	8f/	.	.	.	.	.	.	.
.	8c/	.	8a/	.	.	.	16ee\LL	.	.	.
.	.	.	.	.	.	.	16ff#X\JJ	.	.	.
.	8B/	.	8g/	.	.	.	16gg\LL	-ra	.	.
.	.	.	.	.	.	.	16ff#\JJ	.	.	.
.	8d/J	.	8b/J	.	.	.	16ee\LL	pro	.	.
.	.	.	.	.	.	.	16dd\JJ	.	.	.
=31	=31	=31	=31	=31	=31	=31	=31	=31	=31	=31
2.ryy	4c/	.	4a/	.	2.ryy	2.ryy	8.cc\L	no-	2.ryy	2.ryy
.	.	.	.	.	.	.	16a\Jk	.	.	.
.	16a/LL	f	16cc/LL	f	.	.	4f/	-bis	.	.
.	16g/	.	16b/	.	.	.	.	.	.	.
.	16f#X/	.	16a/	.	.	.	.	.	.	.
.	16e/JJ	.	16g/JJ	.	.	.	.	.	.	.
.	16d/LL	.	16f/LL	.	.	.	4r	.	.	.
.	16c/	.	16e/	.	.	.	.	.	.	.
.	16B/	.	16d/	.	.	.	.	.	.	.
.	16A/JJ	.	16c/JJ	.	.	.	.	.	.	.
=32	=32	=32	=32	=32	=32	=32	=32	=32	=32	=32
!	!	!LO:DY:rj:t=p	!	!	!	!	!	!	!	!
2.ryy	8B/	p	8B/L	.	2.ryy	2.ryy	8g\L	O-	2.ryy	2.ryy
!	!	!	!	!LO:DY:t=p	!	!	!	!	!	!
.	8r	.	8f/	p	.	.	8a\	.	.	.
.	4r	.	8g/	.	.	.	8b\	.	.	.
.	.	.	8a/J	.	.	.	8cc\J	.	.	.
.	8r	.	8b\L	f	.	.	8dd\	ra	.	.
.	8dd\	f	8gg#XJ 8b\	.	.	.	8r	.	.	.
=33	=33	=33	=33	=33	=33	=33	=33	=33	=33	=33
*	*	*	*	*	*	*	*	*ij	*	*
!	!	!	!	!LO:DY:t=p	!	!	!	!	!	!
2.ryy	4cc\	p	4aa 4cc\	p	2.ryy	2.ryy	8g\L	O-	2.ryy	2.ryy
.	.	.	.	.	.	.	8a\	.	.	.
.	4r	.	8a\L	.	.	.	8b\	.	.	.
.	.	.	8b\	f	.	.	8cc\J	.	.	.
.	8r	.	8cc\	.	.	.	8dd\	-ra	.	.
*	*	*	*	*	*	*	*	*Xij	*	*
.	8cc 8d/	f	8ffJ 8a 8d\	.	.	.	8r	.	.	.
!	!	!	!	!	!	!	!LO:LB:g=original	!	!	!
=34	=34	=34	=34	=34	=34	=34	=34	=34	=34	=34
2.ryy	4b 4d 4G/	.	4gg 4b 4d/	p	2.ryy	2.ryy	4dd\	O-	2.ryy	2.ryy
.	.	.	.	.	.	.	16qqcc#X/LL	.	.	.
.	.	.	.	.	.	.	16qqdd/JJ	.	.	.
!	!	!LO:DY:t=p	!	!	!	!	!	!	!	!
.	8cc/L	p	8ee/L	.	.	.	8ee\	-ra	.	.
.	8a/	.	8cc/	.	.	.	8ccn\	pro	.	.
.	8c/	.	8a/	.	.	.	8a/L	no-	.	.
.	8A/J	.	8f#X/J	.	.	.	8f/J	.	.	.
!	!	!	!LO:LB:g=original	!	!	!	!	!	!	!
=35	=35	=35	=35	=35	=35	=35	=35	=35	=35	=35
!	!LO:TX:t=P:problem=mixed beam	!	!	!LO:DY:rj	!	!	!	!	!	!
2.ryy	16B/LL	.	16g\LL	f	2.ryy	2.ryy	4g/	-bis	2.ryy	2.ryy
.	16bb\	.	16bb\	.	.	.	.	.	.	.
.	16ff\	.	16ff\	.	.	.	.	.	.	.
.	16gg\JJ	.	16gg\JJ	.	.	.	.	.	.	.
.	16cc#X\LL	.	16cc#X\LL	.	.	.	4r	.	.	.
.	16dd\	.	16dd\	.	.	.	.	.	.	.
.	16a#X\	.	16a#X\	.	.	.	.	.	.	.
.	16b\JJ	.	16b\JJ	.	.	.	.	.	.	.
.	16f/LL	.	16f/LL	.	.	.	4r	.	.	.
.	16g/	.	16g/	.	.	.	.	.	.	.
.	16c#X/	.	16c#X/	.	.	.	.	.	.	.
.	16d/JJ	.	16d/JJ	.	.	.	.	.	.	.
!	!LO:LB:g=original	!	!	!	!	!	!	!	!	!
=36	=36	=36	=36	=36	=36	=36	=36	=36	=36	=36
!	!	!LO:DY:rj:t=p	!	!LO:DY:rj	!	!	!	!	!	!
2.ryy	8G/	p	8B/L	p	2.ryy	2.ryy	8g\L	O-	2.ryy	2.ryy
.	8r	.	8f/	.	.	.	8a\	.	.	.
.	4r	.	8g/	.	.	.	8b\	.	.	.
.	.	.	8a/J	.	.	.	8cc\J	.	.	.
!	!	!	!	!LO:DY:rj	!	!	!	!	!	!
.	8r	.	8b\L	f	.	.	8dd\	ra	.	.
.	8dd\	f	8gg#XJ 8b\	.	.	.	8r	.	.	.
=37	=37	=37	=37	=37	=37	=37	=37	=37	=37	=37
*	*	*	*	*	*	*	*	*ij	*	*
2.ryy	4cc\	p	4aa 4cc\	.	2.ryy	2.ryy	8g\L	O-	2.ryy	2.ryy
.	.	.	.	.	.	.	8a\	.	.	.
!	!	!	!	!LO:DY:rj:t=p	!	!	!	!	!	!
.	4r	.	8a/L	p	.	.	8b\	.	.	.
.	.	.	8b/	.	.	.	8cc\J	.	.	.
.	8r	.	8cc/	f	.	.	8dd\	-ra	.	.
*	*	*	*	*	*	*	*	*Xij	*	*
.	8cc 8d/	f	8ffJ 8a 8d/	.	.	.	8r	.	.	.
=38	=38	=38	=38	=38	=38	=38	=38	=38	=38	=38
2.ryy	4b 4d 4G/	.	4gg 4b 4d/	.	2.ryy	2.ryy	4dd\	O-	2.ryy	2.ryy
.	.	.	.	.	.	.	16qqcc#X/LL	.	.	.
.	.	.	.	.	.	.	16qqdd/JJ	.	.	.
!	!	!LO:DY:t=p	!	!LO:DY:rj	!	!	!	!	!	!
.	8cc/L	p	8ee\L	p	.	.	8ee\	-ra	.	.
.	8a/	.	8cc\	.	.	.	8ccn\	pro	.	.
.	8c/	.	8a\	.	.	.	8a/L	no-	.	.
.	8A/J	.	8ff\J	.	.	.	8f/J	.	.	.
=39	=39	=39	=39	=39	=39	=39	=39	=39	=39	=39
!	!LO:TX:a:i:t=dolce	!	!LO:TX:b:i:t=dulce	!	!	!	!	!	!	!
2.ryy	16B/LL	.	4.gg\	.	2.ryy	2.ryy	4g\	-bis	2.ryy	2.ryy
.	16d/	.	.	.	.	.	.	.	.	.
.	16B/	.	.	.	.	.	.	.	.	.
.	16d/JJ	.	.	.	.	.	.	.	.	.
*	*rep	*	*	*	*	*	*	*	*	*
.	16B/LL	.	.	.	.	.	4r	.	.	.
.	16d/	.	.	.	.	.	.	.	.	.
.	16B/	.	16bb\LL	.	.	.	.	.	.	.
.	16d/JJ	.	16ddd\JJ	.	.	.	.	.	.	.
*	*Xrep	*	*	*	*	*	*	*	*	*
*	*rep	*	*	*	*	*	*	*	*	*
.	16B/LL	.	16ccc\LL	.	.	.	4r	.	.	.
.	16d/	.	16bb\	.	.	.	.	.	.	.
.	16B/	.	16aa\	.	.	.	.	.	.	.
.	16d/JJ	.	16gg\JJ	.	.	.	.	.	.	.
*	*Xrep	*	*	*	*	*	*	*	*	*
!	!	!	!	!	!	!	!LO:LB:g=original	!	!	!
=40	=40	=40	=40	=40	=40	=40	=40	=40	=40	=40
!	!	!	!	!	!	!	!LO:TX:a:t=14:color=grey	!	!	!
2.ryy	16c/LL	.	8.ccc\L	.	2.ryy	2.ryy	0.r	.	2.ryy	2.ryy
.	16d/	.	.	.	.	.	.	.	.	.
.	16c/	.	.	.	.	.	.	.	.	.
.	16d/JJ	.	16aa\Jk	.	.	.	.	.	.	.
.	16c/LL	.	4ff#X\	.	.	.	.	.	.	.
.	16d/	.	.	.	.	.	.	.	.	.
.	16f#X/	.	.	.	.	.	.	.	.	.
.	16a/JJ	.	.	.	.	.	.	.	.	.
.	16g/LL	.	4r	.	.	.	.	.	.	.
.	16f#/	.	.	.	.	.	.	.	.	.
.	16e/	.	.	.	.	.	.	.	.	.
.	16d/JJ	.	.	.	.	.	.	.	.	.
!	!	!	!LO:LB:g=original	!	!	!	!	!	!	!
=41	=41	=41	=41	=41	=41	=41	=41	=41	=41	=41
2.ryy	16B/LL	.	4.gg\	.	2.ryy	2.ryy	.	.	2.ryy	2.ryy
.	16d/	.	.	.	.	.	.	.	.	.
.	16B/	.	.	.	.	.	.	.	.	.
.	16d/JJ	.	.	.	.	.	.	.	.	.
*	*rep	*	*	*	*	*	*	*	*	*
.	16B/LL	.	.	.	.	.	.	.	.	.
.	16d/	.	.	.	.	.	.	.	.	.
.	16B/	.	16bb\LL	.	.	.	.	.	.	.
.	16d/JJ	.	16ddd\JJ	.	.	.	.	.	.	.
*	*Xrep	*	*	*	*	*	*	*	*	*
*	*rep	*	*	*	*	*	*	*	*	*
.	16B/LL	.	16ccc\LL	.	.	.	.	.	.	.
.	16d/	.	16bb\	.	.	.	.	.	.	.
.	16B/	.	16aa\	.	.	.	.	.	.	.
.	16d/JJ	.	16gg\JJ	.	.	.	.	.	.	.
*	*Xrep	*	*	*	*	*	*	*	*	*
=42	=42	=42	=42	=42	=42	=42	=42	=42	=42	=42
2.ryy	16c/LL	.	8.ccc\L	.	2.ryy	2.ryy	.	.	2.ryy	2.ryy
.	16d/	.	.	.	.	.	.	.	.	.
.	16c/	.	.	.	.	.	.	.	.	.
.	16d/JJ	.	16aa\Jk	.	.	.	.	.	.	.
.	16c/LL	.	4ff#X\	.	.	.	.	.	.	.
.	16d/	.	.	.	.	.	.	.	.	.
!	!LO:SIC:v:s=16f#/	!	!	!	!	!	!	!	!	!
.	16f/	.	.	.	.	.	.	.	.	.
.	16a/JJ	.	.	.	.	.	.	.	.	.
.	16g/LL	.	4r	.	.	.	.	.	.	.
!	!LO:SIC:v:s=16f#/	!	!	!	!	!	!	!	!	!
.	16f/	.	.	.	.	.	.	.	.	.
.	16e/	.	.	.	.	.	.	.	.	.
.	16d/JJ	.	.	.	.	.	.	.	.	.
!	!LO:LB:g=original	!	!	!	!	!	!	!	!	!
=43	=43	=43	=43	=43	=43	=43	=43	=43	=43	=43
2.ryy	16B/LL	.	4gg\	.	2.ryy	2.ryy	.	.	2.ryy	2.ryy
.	16d/	.	.	.	.	.	.	.	.	.
.	16B/	.	.	.	.	.	.	.	.	.
.	16d/JJ	.	.	.	.	.	.	.	.	.
*	*rep	*	*	*	*	*	*	*	*	*
.	16B/LL	.	16gg\LL	p	.	.	.	.	.	.
.	16d/	.	16ff\	.	.	.	.	.	.	.
.	16B/	.	16ee\	.	.	.	.	.	.	.
.	16d/JJ	.	16dd\JJ	.	.	.	.	.	.	.
*	*Xrep	*	*	*	*	*	*	*	*	*
*	*rep	*	*	*	*	*	*	*	*	*
.	16B/LL	.	16cc\LL	.	.	.	.	.	.	.
.	16d/	.	16b\	.	.	.	.	.	.	.
.	16B/	.	16a\	.	.	.	.	.	.	.
.	16d/JJ	.	16g\JJ	.	.	.	.	.	.	.
*	*Xrep	*	*	*	*	*	*	*	*	*
=44	=44	=44	=44	=44	=44	=44	=44	=44	=44	=44
*	*rep	*	*	*	*	*	*	*	*	*
2.ryy	16B/LL	.	(16f#X/LL	f	2.ryy	2.ryy	0.r	.	2.ryy	2.ryy
.	16d/	.	16g/)	.	.	.	.	.	.	.
.	16B/	.	16d|/	.	.	.	.	.	.	.
.	16d/JJ	.	16g|/JJ	.	.	.	.	.	.	.
*	*Xrep	*	*	*	*	*	*	*	*	*
*	*rep	*	*rep	*	*	*	*	*	*	*
.	16B/LL	.	(16f#/LL	.	.	.	.	.	.	.
.	16d/	.	16g/)	.	.	.	.	.	.	.
.	16B/	.	16d|/	.	.	.	.	.	.	.
.	16d/JJ	.	16g|/JJ	.	.	.	.	.	.	.
*	*Xrep	*	*	*	*	*	*	*	*	*
*	*rep	*	*Xrep	*	*	*	*	*	*	*
.	16B/LL	.	(16f#X/LL	.	.	.	.	.	.	.
.	16d/	.	16g/)	.	.	.	.	.	.	.
.	16B/	.	16d|/	.	.	.	.	.	.	.
.	16d/JJ	.	16fn|/JJ	.	.	.	.	.	.	.
*	*Xrep	*	*	*	*	*	*	*	*	*
=45	=45	=45	=45	=45	=45	=45	=45	=45	=45	=45
2.ryy	16c/LL	.	4e/	p	2.ryy	2.ryy	.	.	2.ryy	2.ryy
.	16e/	.	.	.	.	.	.	.	.	.
.	16c/	.	.	.	.	.	.	.	.	.
.	16e/JJ	.	.	.	.	.	.	.	.	.
*	*rep	*	*	*	*	*	*	*	*	*
.	16c/LL	.	16gg\LL	.	.	.	.	.	.	.
.	16e/	.	16ff\	.	.	.	.	.	.	.
.	16c/	.	16ee\	.	.	.	.	.	.	.
.	16e/JJ	.	16dd\JJ	.	.	.	.	.	.	.
*	*Xrep	*	*	*	*	*	*	*	*	*
*	*rep	*	*	*	*	*	*	*	*	*
.	16c/LL	.	16cc\LL	.	.	.	.	.	.	.
.	16e/	.	16b\	.	.	.	.	.	.	.
.	16c/	.	16a\	.	.	.	.	.	.	.
.	16e/JJ	.	16g\JJ	.	.	.	.	.	.	.
*	*Xrep	*	*	*	*	*	*	*	*	*
=46	=46	=46	=46	=46	=46	=46	=46	=46	=46	=46
2.ryy	16c#X/LL	.	(16f#X/LL	f	2.ryy	2.ryy	.	.	2.ryy	2.ryy
.	16e/	.	16g/)	.	.	.	.	.	.	.
.	16c#/	.	16e|/	.	.	.	.	.	.	.
.	16e/JJ	.	16g|/JJ	.	.	.	.	.	.	.
*	*rep	*	*rep	*	*	*	*	*	*	*
.	16c#/LL	.	(16f#/LL	.	.	.	.	.	.	.
.	16e/	.	16g/)	.	.	.	.	.	.	.
.	16c#/	.	16e|/	.	.	.	.	.	.	.
.	16e/JJ	.	16g|/JJ	.	.	.	.	.	.	.
*	*Xrep	*	*Xrep	*	*	*	*	*	*	*
*	*rep	*	*rep	*	*	*	*	*	*	*
.	16c#/LL	.	(16f#/LL	.	.	.	.	.	.	.
.	16e/	.	16g/)	.	.	.	.	.	.	.
.	16c#/	.	16e|/	.	.	.	.	.	.	.
.	16e/JJ	.	16g|/JJ	.	.	.	.	.	.	.
*	*Xrep	*	*Xrep	*	*	*	*	*	*	*
!	!	!	!LO:LB:g=original	!	!	!	!	!	!	!
=47	=47	=47	=47	=47	=47	=47	=47	=47	=47	=47
*	*tremolo	*	*	*	*	*	*	*	*	*
!	!	!	!LO:TX:t=P:problem=mixed beam	!	!	!	!	!	!	!
2.ryy	8bL 8d/	.	8.d/L	.	2.ryy	2.ryy	.	.	2.ryy	2.ryy
.	8b 8d/	.	.	.	.	.	.	.	.	.
.	.	.	16dd\Jk	.	.	.	.	.	.	.
.	8b 8d/	.	16cc#X\LL	.	.	.	.	.	.	.
.	.	.	16dd\	.	.	.	.	.	.	.
.	8bJ 8d/	.	16ee\	.	.	.	.	.	.	.
.	.	.	16dd\JJ	.	.	.	.	.	.	.
*	*Xtremolo	*	*	*	*	*	*	*	*	*
.	8aL 8d/	.	16b\LL	.	.	.	.	.	.	.
.	.	.	16ccn\	.	.	.	.	.	.	.
.	8aJ 8d/	.	16a\	.	.	.	.	.	.	.
.	.	.	16f\JJ	.	.	.	.	.	.	.
=48	=48	=48	=48	=48	=48	=48	=48	=48	=48	=48
!	!	!LO:DY:t=p:rj	!	!	!	!	!	!	!	!
2.ryy	16g/LL	p	4g/	p	2.ryy	2.ryy	0.r	.	2.ryy	2.ryy
.	16d/	.	.	.	.	.	.	.	.	.
.	16B/	.	.	.	.	.	.	.	.	.
.	16d/JJ	.	.	.	.	.	.	.	.	.
.	16B/LL	.	16gg\LL	.	.	.	.	.	.	.
.	16d/	.	16ff\	.	.	.	.	.	.	.
.	16B/	.	16ee\	.	.	.	.	.	.	.
.	16d/JJ	.	16dd\JJ	.	.	.	.	.	.	.
*	*rep	*	*	*	*	*	*	*	*	*
.	16B/LL	.	16cc\LL	.	.	.	.	.	.	.
.	16d/	.	16b\	.	.	.	.	.	.	.
.	16B/	.	16a\	.	.	.	.	.	.	.
.	16d/JJ	.	16g\JJ	.	.	.	.	.	.	.
*	*Xrep	*	*	*	*	*	*	*	*	*
=49	=49	=49	=49	=49	=49	=49	=49	=49	=49	=49
*	*rep	*	*	*	*	*	*	*	*	*
2.ryy	16B/LL	f	(16f#X/LL	.	2.ryy	2.ryy	.	.	2.ryy	2.ryy
.	16d/	.	16g/)	.	.	.	.	.	.	.
.	16B/	.	16e|/	.	.	.	.	.	.	.
.	16d/JJ	.	16g|/JJ	.	.	.	.	.	.	.
*	*Xrep	*	*	*	*	*	*	*	*	*
*	*rep	*	*rep	*	*	*	*	*	*	*
.	16B/LL	.	(16f#/LL	.	.	.	.	.	.	.
.	16d/	.	16g/)	.	.	.	.	.	.	.
.	16B/	.	16e|/	.	.	.	.	.	.	.
.	16d/JJ	.	16g|/JJ	.	.	.	.	.	.	.
*	*Xrep	*	*	*	*	*	*	*	*	*
*	*rep	*	*Xrep	*	*	*	*	*	*	*
.	16B/LL	.	16f#X/LL	.	.	.	.	.	.	.
.	16d/	.	16g/	.	.	.	.	.	.	.
.	16B/	.	16d/	.	.	.	.	.	.	.
.	16d/JJ	.	16fn/JJ	.	.	.	.	.	.	.
*	*Xrep	*	*	*	*	*	*	*	*	*
=50	=50	=50	=50	=50	=50	=50	=50	=50	=50	=50
!	!	!LO:DY:rj:t=p	!	!	!	!	!	!	!	!
2.ryy	16c/LL	p	4e/	p	2.ryy	2.ryy	.	.	2.ryy	2.ryy
.	16e/	.	.	.	.	.	.	.	.	.
.	16c/	.	.	.	.	.	.	.	.	.
.	16e/JJ	.	.	.	.	.	.	.	.	.
*	*rep	*	*	*	*	*	*	*	*	*
.	16c/LL	.	16gg\LL	.	.	.	.	.	.	.
.	16e/	.	16ff\	.	.	.	.	.	.	.
.	16c/	.	16ee\	.	.	.	.	.	.	.
.	16e/JJ	.	16dd\JJ	.	.	.	.	.	.	.
*	*Xrep	*	*	*	*	*	*	*	*	*
*	*rep	*	*	*	*	*	*	*	*	*
.	16c/LL	.	16cc\LL	.	.	.	.	.	.	.
.	16e/	.	16b\	.	.	.	.	.	.	.
.	16c/	.	16a\	.	.	.	.	.	.	.
.	16e/JJ	.	16g\JJ	.	.	.	.	.	.	.
*	*Xrep	*	*	*	*	*	*	*	*	*
!	!LO:LB:g=original	!	!	!	!	!	!	!	!	!
=51	=51	=51	=51	=51	=51	=51	=51	=51	=51	=51
!	!	!LO:DY:rj	!	!	!	!	!	!	!	!
2.ryy	16c#X/LL	f	16f#X/LL	f	2.ryy	2.ryy	.	.	2.ryy	2.ryy
.	16e/	.	16g/	.	.	.	.	.	.	.
.	16c#/	.	16e/	.	.	.	.	.	.	.
.	16e/JJ	.	16g/JJ	.	.	.	.	.	.	.
*	*rep	*	*rep	*	*	*	*	*	*	*
.	16c#/LL	.	16f#/LL	.	.	.	.	.	.	.
.	16e/	.	16g/	.	.	.	.	.	.	.
.	16c#/	.	16e/	.	.	.	.	.	.	.
.	16e/JJ	.	16g/JJ	.	.	.	.	.	.	.
*	*Xrep	*	*Xrep	*	*	*	*	*	*	*
*	*rep	*	*rep	*	*	*	*	*	*	*
.	16c#/LL	.	16f#/LL	.	.	.	.	.	.	.
.	16e/	.	16g/	.	.	.	.	.	.	.
.	16c#/	.	16e/	.	.	.	.	.	.	.
.	16e/JJ	.	16g/JJ	.	.	.	.	.	.	.
*	*Xrep	*	*Xrep	*	*	*	*	*	*	*
=52	=52	=52	=52	=52	=52	=52	=52	=52	=52	=52
*	*tremolo	*	*	*	*	*	*	*	*	*
!	!	!	!LO:TX:t=P:problem=mixed beam	!	!	!	!	!	!	!
2.ryy	8bL 8d/	.	8d/L	.	2.ryy	2.ryy	1.r	.	2.ryy	2.ryy
.	8b 8d/	.	8dd\J	.	.	.	.	.	.	.
.	8b 8d/	.	16dd\LL	.	.	.	.	.	.	.
.	.	.	16ee\	.	.	.	.	.	.	.
.	8bJ 8d/	.	16ff\	.	.	.	.	.	.	.
.	.	.	16gg\JJ	.	.	.	.	.	.	.
*	*Xtremolo	*	*	*	*	*	*	*	*	*
.	8ccL 8d/	.	8g/L	.	.	.	.	.	.	.
.	8ccJ 8d/	.	8a/J	.	.	.	.	.	.	.
!	!	!	!LO:LB:g=original	!	!	!	!	!	!	!
=53	=53	=53	=53	=53	=53	=53	=53	=53	=53	=53
2.ryy	4b 4d/	.	4g/	.	2.ryy	2.ryy	.	.	2.ryy	2.ryy
.	4b 4d 4G/	.	4gg 4b 4d 4G/	.	.	.	.	.	.	.
.	4r	.	4r	.	.	.	.	.	.	.
=54	=54	=54	=54	=54	=54	=54	=54	=54	=54	=54
*	*tremolo	*	*	*	*	*	*2\right	*	*	*
!	!	!LO:DY:rj:t=p	!	!	!	!	!	!	!	!
2.ryy	8bL 8d/	p	2g/	.	2.ryy	2.ryy	2g\	San-	2.ryy	2.ryy
.	8b 8d/	.	.	.	.	.	.	.	.	.
.	8b 8d/	.	.	.	.	.	.	.	.	.
.	8b 8d/	.	.	.	.	.	.	.	.	.
!	!	!	!	!LO:DY:rj:t=p	!	!	!	!	!	!
.	8b 8d/	.	8b\L	p	.	.	8b\	-cta	.	.
.	8bJ 8d/	.	8dd\J	.	.	.	8dd\	ma-	.	.
=55	=55	=55	=55	=55	=55	=55	=55	=55	=55	=55
2.ryy	8ccL 8d/	.	8dd\L	.	2.ryy	2.ryy	8dd\L	-ri-	2.ryy	2.ryy
.	8cc 8d/	.	8cc#X\J	.	.	.	8cc#X\J	.	.	.
.	8cc 8d/	.	8.ccn\L	.	.	.	4ccn\	-a	.	.
.	8cc 8d/	.	.	.	.	.	.	.	.	.
.	.	.	16a\Jk	.	.	.	.	.	.	.
.	8cc 8d/	.	16f#X\LL	.	.	.	4r	.	.	.
.	.	.	16a\	.	.	.	.	.	.	.
.	8ccJ 8d/	.	16cc\	.	.	.	.	.	.	.
.	.	.	16ee\JJ	.	.	.	.	.	.	.
*	*Xtremolo	*	*	*	*	*	*	*	*	*
=56	=56	=56	=56	=56	=56	=56	=56	=56	=56	=56
2.ryy	16b/LL	.	4.dd\	.	2.ryy	2.ryy	4.dd\	O-	2.ryy	2.ryy
.	16g/	.	.	.	.	.	.	.	.	.
.	16f#X/	.	.	.	.	.	.	.	.	.
.	16g/JJ	.	.	.	.	.	.	.	.	.
.	16f#/LL	.	.	.	.	.	.	.	.	.
.	16g/	.	.	.	.	.	.	.	.	.
.	16a/	.	16cc\LL	.	.	.	16cc\LL	.	.	.
.	16cc/JJ	.	16ee\JJ	.	.	.	16ee\JJ	.	.	.
.	16b/LL	.	16dd\LL	.	.	.	16dd\LL	-ra	.	.
.	16g/	.	16b\	.	.	.	16b\JJ	.	.	.
.	16e/	.	16cc\	.	.	.	16cc\LL	pro	.	.
.	16c/JJ	.	16a\JJ	.	.	.	16a\JJ	.	.	.
=57	=57	=57	=57	=57	=57	=57	=57	=57	=57	=57
2.ryy	4c/	.	4a/	.	2.ryy	2.ryy	4a\	no-	2.ryy	2.ryy
.	16B/LL	.	16g/LL	.	.	.	4g\	-bis	.	.
.	16a/	.	16a/	.	.	.	.	.	.	.
.	16fn/	.	16fn/	.	.	.	.	.	.	.
.	16g/JJ	.	16g/JJ	.	.	.	.	.	.	.
.	16e/LL	.	16e/LL	.	.	.	4r	.	.	.
.	16f/	.	16f/	.	.	.	.	.	.	.
.	16d/	.	16d/	.	.	.	.	.	.	.
.	16e/JJ	.	16e/JJ	.	.	.	.	.	.	.
=58	=58	=58	=58	=58	=58	=58	=58	=58	=58	=58
!	!	!	!	!LO:DY:rj	!	!	!	!	!	!
2.ryy	8r	.	8c/	p	2.ryy	2.ryy	2cc\	San-	2.ryy	2.ryy
*	*tremolo	*	*	*	*	*	*	*	*	*
.	8eL 8G/	.	4cc\	.	.	.	.	.	.	.
.	8e 8G/	.	.	.	.	.	.	.	.	.
.	8e 8G/	.	8cc\L	.	.	.	.	.	.	.
.	8e 8G/	.	8ee\	.	.	.	8ee\	-cta	.	.
*	*Xtremolo	*	*	*	*	*	*	*	*	*
.	8eJ 8G/	.	8gg\J	.	.	.	8gg\	Ma-	.	.
!	!	!	!	!	!	!	!LO:LB:g=original	!	!	!
=59	=59	=59	=59	=59	=59	=59	=59	=59	=59	=59
2.ryy	8r	.	16gg\LL	.	2.ryy	2.ryy	16gg\LL	-ri-	2.ryy	2.ryy
.	.	.	16aa\	.	.	.	16aa\	.	.	.
.	8fn 8G/	.	16ee\	.	.	.	16ee\	.	.	.
.	.	.	16gg\JJ	.	.	.	16gg\JJ	.	.	.
*	*tremolo	*	*	*	*	*	*	*	*	*
.	8fL 8G/	.	8.ff\L	.	.	.	4ff\	-a	.	.
.	8f 8G/	.	.	.	.	.	.	.	.	.
.	.	.	16dd\Jk	.	.	.	.	.	.	.
.	8f 8G/	.	16b\LL	.	.	.	4r	.	.	.
.	.	.	16dd\	.	.	.	.	.	.	.
.	8fJ 8G/	.	16ff\	.	.	.	.	.	.	.
.	.	.	16aa\JJ	.	.	.	.	.	.	.
*	*Xtremolo	*	*	*	*	*	*	*	*	*
!	!LO:LB:g=original	!	!LO:LB:g=original	!	!	!	!	!	!	!
=60	=60	=60	=60	=60	=60	=60	=60	=60	=60	=60
2.ryy	16e/LL	.	4.gg\	.	2.ryy	2.ryy	4.gg\	O-	2.ryy	2.ryy
.	16c/	.	.	.	.	.	.	.	.	.
.	16B/	.	.	.	.	.	.	.	.	.
.	16c/JJ	.	.	.	.	.	.	.	.	.
.	16B/LL	.	.	.	.	.	.	.	.	.
.	16c/	.	.	.	.	.	.	.	.	.
.	16d/	.	16ff\LL	.	.	.	16ff\LL	.	.	.
.	16f/JJ	.	16aa\JJ	.	.	.	16aa\JJ	.	.	.
.	16e/LL	.	16gg\LL	.	.	.	16gg\LL	-ra	.	.
.	16c/	.	16ee\	.	.	.	16ee\JJ	.	.	.
.	16d/	.	16ff\	.	.	.	16ff\LL	pro	.	.
.	16f/JJ	.	16dd\JJ	.	.	.	16dd\JJ	.	.	.
=61	=61	=61	=61	=61	=61	=61	=61	=61	=61	=61
2.ryy	4f/	.	4dd\	.	2.ryy	2.ryy	4dd\	no-	2.ryy	2.ryy
.	16e/LL	.	16cc/LL	.	.	.	4cc\	-bis	.	.
.	16cc/	.	16cc/	.	.	.	.	.	.	.
.	16g/	.	16g/	.	.	.	.	.	.	.
.	16e/JJ	.	16e/JJ	.	.	.	.	.	.	.
.	4c/	.	4c/	.	.	.	4r	.	.	.
=62	=62	=62	=62	=62	=62	=62	=62	=62	=62	=62
2.ryy	(16e/LL	.	(16g/LL	p	2.ryy	2.ryy	8.cc\L	San-	2.ryy	2.ryy
.	16f/)	.	16a/)	.	.	.	.	.	.	.
.	16g'/	.	16b-X'/	.	.	.	.	.	.	.
.	16g'/JJ	.	16b-'/JJ	.	.	.	16dd\Jk	.	.	.
*	*rep	*	*rep	*	*	*	*	*	*	*
.	(16e/LL	.	(16g/LL	.	.	.	4cc\	-cta	.	.
.	16f/)	.	16a/)	.	.	.	.	.	.	.
.	16g'/	.	16b-'/	.	.	.	.	.	.	.
.	16g'/JJ	.	16b-'/JJ	.	.	.	.	.	.	.
*	*Xrep	*	*Xrep	*	*	*	*	*	*	*
*	*rep	*	*rep	*	*	*	*	*	*	*
.	(16e/LL	.	(16g/LL	.	.	.	4r	.	.	.
.	16f/)	.	16a/)	.	.	.	.	.	.	.
.	16g'/	.	16b-'/	.	.	.	.	.	.	.
.	16g'/JJ	.	16b-'/JJ	.	.	.	.	.	.	.
*	*Xrep	*	*Xrep	*	*	*	*	*	*	*
=63	=63	=63	=63	=63	=63	=63	=63	=63	=63	=63
*	*	*	*	*	*	*	*	*ij	*	*
2.ryy	(16f/LL	.	(16a/LL	.	2.ryy	2.ryy	8.cc\L	San-	2.ryy	2.ryy
!	!	!	!LO:SIC:v:s=16b-/)	!	!	!	!	!	!	!
.	16g/)	.	16b/)	.	.	.	.	.	.	.
.	16a'/	.	16cc'/	.	.	.	.	.	.	.
.	16a'/JJ	.	16cc'/JJ	.	.	.	16dd\Jk	.	.	.
*	*rep	*	*rep	*	*	*	*	*	*	*
.	(16f/LL	.	(16a/LL	.	.	.	4cc\	-cta	.	.
!	!	!	!LO:SIC:v:s=16b-/)	!	!	!	!	!	!	!
.	16g/)	.	16b/)	.	.	.	.	.	.	.
.	16a'/	.	16cc'/	.	.	.	.	.	.	.
.	16a'/JJ	.	16cc'/JJ	.	.	.	.	.	.	.
*	*Xrep	*	*Xrep	*	*	*	*	*	*	*
*	*rep	*	*rep	*	*	*	*	*	*	*
.	(16f/LL	.	(16a/LL	.	.	.	4r	.	.	.
!	!	!	!LO:SIC:v:s=16b-/)	!	!	!	!	!	!	!
.	16g/)	.	16b/)	.	.	.	.	.	.	.
.	16a'/	.	16cc'/	.	.	.	.	.	.	.
.	16a'/JJ	.	16cc'/JJ	.	.	.	.	.	.	.
*	*Xrep	*	*Xrep	*	*	*	*	*	*	*
!	!	!	!	!	!	!	!LO:LB:g=original	!	!	!
=64	=64	=64	=64	=64	=64	=64	=64	=64	=64	=64
!	!	!	!LO:SIC:v:s=16b-\LL	!	!	!	!	!	!	!
2.ryy	(16e/LL	.	16b\LL	.	2.ryy	2.ryy	4.gg\	San-	2.ryy	2.ryy
.	16g/)	.	16cc\	.	.	.	.	.	.	.
.	16b-X'/	.	16ee\	.	.	.	.	.	.	.
.	16g'/JJ	.	16cc\JJ	.	.	.	.	.	.	.
*	*rep	*	*rep	*	*	*	*	*	*	*
!	!	!	!LO:SIC:v:s=16b-\LL	!	!	!	!	!	!	!
.	(16e/LL	.	16b\LL	.	.	.	.	.	.	.
.	16g/)	.	16cc\	.	.	.	.	.	.	.
.	16b-'/	.	16ee\	.	.	.	8ee\	-cta	.	.
*	*	*	*	*	*	*	*	*Xij	*	*
.	16g'/JJ	.	16cc\JJ	.	.	.	.	.	.	.
*	*Xrep	*	*Xrep	*	*	*	*	*	*	*
*	*rep	*	*rep	*	*	*	*	*	*	*
!	!	!	!LO:SIC:v:s=16b-\LL	!	!	!	!	!	!	!
.	(16e/LL	.	16b\LL	.	.	.	8cc\	Vir-	.	.
.	16g/)	.	16cc\	.	.	.	.	.	.	.
.	16b-'/	.	16ee\	.	.	.	8b-X\	-go	.	.
.	16g'/JJ	.	16cc\JJ	.	.	.	.	.	.	.
*	*Xrep	*	*Xrep	*	*	*	*	*	*	*
=65	=65	=65	=65	=65	=65	=65	=65	=65	=65	=65
!	!	!	!LO:TX:t=P:problem=mixed beam	!	!	!	!LO:SIC:v:s=8.b-\	!	!	!
2.ryy	16a/LL	.	16ff\LL	.	2.ryy	2.ryy	8.b\	vir-	2.ryy	2.ryy
.	16f/	.	16f/	.	.	.	.	.	.	.
.	16e/	.	16e/	.	.	.	.	.	.	.
.	16f/JJ	.	16f/JJ	.	.	.	16a\	-gi-	.	.
.	16e/LL	.	16e/LL	.	.	.	4a\	-num	.	.
.	16f/	.	16f/	.	.	.	.	.	.	.
.	16a/	.	16a/	.	.	.	.	.	.	.
.	16cc/JJ	.	16cc/JJ	.	.	.	.	.	.	.
.	4ff\	.	4ff\	.	.	.	4r	.	.	.
=66	=66	=66	=66	=66	=66	=66	=66	=66	=66	=66
2.ryy	(16f#X/LL	.	(16a/LL	p	2.ryy	2.ryy	8.dd\L	San-	2.ryy	2.ryy
.	16g/)	.	16bn/)	.	.	.	.	.	.	.
.	16a'/	.	16cc'/	.	.	.	.	.	.	.
.	16a'/JJ	.	16cc'/JJ	.	.	.	16ee\Jk	.	.	.
*	*rep	*	*rep	*	*	*	*	*	*	*
.	(16f#/LL	.	(16a/LL	.	.	.	4dd\	-cta	.	.
.	16g/)	.	16b/)	.	.	.	.	.	.	.
.	16a'/	.	16cc'/	.	.	.	.	.	.	.
.	16a'/JJ	.	16cc'/JJ	.	.	.	.	.	.	.
*	*Xrep	*	*Xrep	*	*	*	*	*	*	*
*	*rep	*	*rep	*	*	*	*	*	*	*
.	(16f#/LL	.	(16a/LL	.	.	.	4r	.	.	.
.	16g/)	.	16b/)	.	.	.	.	.	.	.
.	16a'/	.	16cc'/	.	.	.	.	.	.	.
.	16a'/JJ	.	16cc'/JJ	.	.	.	.	.	.	.
*	*Xrep	*	*Xrep	*	*	*	*	*	*	*
!	!LO:LB:g=original	!	!LO:LB:g=original	!	!	!	!	!	!	!
=67	=67	=67	=67	=67	=67	=67	=67	=67	=67	=67
*	*	*	*	*	*	*	*	*ij	*	*
2.ryy	(16g/LL	.	(16b\LL	.	2.ryy	2.ryy	8.dd\L	San-	2.ryy	2.ryy
.	16a/)	.	16cc\)	.	.	.	.	.	.	.
.	16b'/	.	16dd'\	.	.	.	.	.	.	.
.	16b'/JJ	.	16dd'\JJ	.	.	.	16ee\Jk	.	.	.
*	*rep	*	*rep	*	*	*	*	*	*	*
.	(16g/LL	.	(16b\LL	.	.	.	4dd\	-cta	.	.
.	16a/)	.	16cc\)	.	.	.	.	.	.	.
.	16b'/	.	16dd'\	.	.	.	.	.	.	.
.	16b'/JJ	.	16dd'\JJ	.	.	.	.	.	.	.
*	*Xrep	*	*Xrep	*	*	*	*	*	*	*
*	*rep	*	*rep	*	*	*	*	*	*	*
.	(16g/LL	.	(16b\LL	.	.	.	4r	.	.	.
.	16a/)	.	16cc\)	.	.	.	.	.	.	.
.	16b'/	.	16dd'\	.	.	.	.	.	.	.
.	16b'/JJ	.	16dd'\JJ	.	.	.	.	.	.	.
*	*Xrep	*	*Xrep	*	*	*	*	*	*	*
=68	=68	=68	=68	=68	=68	=68	=68	=68	=68	=68
2.ryy	16f#X/LL	.	16cc\LL	.	2.ryy	2.ryy	4.aa\	San-	2.ryy	2.ryy
.	16a/	.	16dd\	.	.	.	.	.	.	.
.	16cc/	.	16ff#X\	.	.	.	.	.	.	.
.	16a/JJ	.	16dd\JJ	.	.	.	.	.	.	.
*	*rep	*	*rep	*	*	*	*	*	*	*
.	16f#/LL	.	16cc\LL	.	.	.	.	.	.	.
.	16a/	.	16dd\	.	.	.	.	.	.	.
.	16cc/	.	16ff#\	.	.	.	8ff#X\	-cta	.	.
*	*	*	*	*	*	*	*	*Xij	*	*
.	16a/JJ	.	16dd\JJ	.	.	.	.	.	.	.
*	*Xrep	*	*Xrep	*	*	*	*	*	*	*
*	*rep	*	*rep	*	*	*	*	*	*	*
.	16f#/LL	.	16cc\LL	.	.	.	8dd\	vir-	.	.
.	16a/	.	16dd\	.	.	.	.	.	.	.
.	16cc/	.	16ff#\	.	.	.	8cc\	-go	.	.
.	16a/JJ	.	16dd\JJ	.	.	.	.	.	.	.
*	*Xrep	*	*Xrep	*	*	*	*	*	*	*
!	!	!	!	!	!	!	!LO:LB:g=original	!	!	!
=69	=69	=69	=69	=69	=69	=69	=69	=69	=69	=69
!	!	!	!LO:TX:t=P:problem=mixed beam	!	!	!	!	!	!	!
2.ryy	16b/LL	.	16gg\LL	f	2.ryy	2.ryy	8.cc\	vir-	2.ryy	2.ryy
.	16g/	.	16g/	.	.	.	.	.	.	.
.	16f#X/	.	16f#X/	.	.	.	.	.	.	.
.	16g/JJ	.	16g/JJ	.	.	.	16bn\	-gi-	.	.
.	16f#/LL	.	16f#/LL	.	.	.	4b\	-num	.	.
.	16g/	.	16g/	.	.	.	.	.	.	.
.	16b/	.	16b/	.	.	.	.	.	.	.
.	16dd/JJ	.	16dd/JJ	.	.	.	.	.	.	.
.	4gg\	.	4gg\	.	.	.	4r	.	.	.
=70	=70	=70	=70	=70	=70	=70	=70	=70	=70	=70
!	!	!	!	!LO:DY:rj	!	!	!	!	!	!
2.ryy	8e/L	.	8g/L	p	2.ryy	2.ryy	4.g\	O-	2.ryy	2.ryy
.	8e/	.	8cc/	.	.	.	.	.	.	.
.	8d/	.	8b/	.	.	.	.	.	.	.
.	8fn/	.	8dd/	.	.	.	8cc\	.	.	.
.	8e/	.	8cc/	.	.	.	8ee\	-ra	.	.
.	8g/J	.	8ee/J	.	.	.	8gg\	pro	.	.
=71	=71	=71	=71	=71	=71	=71	=71	=71	=71	=71
2.ryy	4f/	.	4dd\	.	2.ryy	2.ryy	8.ffn\L	no-	2.ryy	2.ryy
.	.	.	.	.	.	.	16dd\Jk	.	.	.
.	16dd\LL	.	16ffn\LL	.	.	.	4b\	-bis	.	.
.	16cc\	.	16ee\	.	.	.	.	.	.	.
.	16b\	.	16dd\	.	.	.	.	.	.	.
.	16a\JJ	.	16cc\JJ	.	.	.	.	.	.	.
.	16g/LL	.	16b\LL	.	.	.	4r	.	.	.
.	16f/	.	16a\	.	.	.	.	.	.	.
.	16e/	.	16g\	.	.	.	.	.	.	.
.	16d/JJ	.	16f\JJ	.	.	.	.	.	.	.
=72	=72	=72	=72	=72	=72	=72	=72	=72	=72	=72
2.ryy	8c/L	.	8e/L	.	2.ryy	2.ryy	4.cc\	O-	2.ryy	2.ryy
.	8e/	.	8cc/	.	.	.	.	.	.	.
.	8d/	.	8b/	.	.	.	.	.	.	.
.	8f/	.	8dd/	.	.	.	16ee\LL	.	.	.
.	.	.	.	.	.	.	16gg\JJ	.	.	.
.	8e/	.	8cc/	.	.	.	16ff\LL	-ra	.	.
.	.	.	.	.	.	.	16ee\JJ	.	.	.
.	8g/J	.	8ee/J	.	.	.	16dd\LL	pro	.	.
.	.	.	.	.	.	.	16cc\JJ	.	.	.
=73	=73	=73	=73	=73	=73	=73	=73	=73	=73	=73
2.ryy	4f/	.	4dd\	.	2.ryy	2.ryy	8.ff\L	no-	2.ryy	2.ryy
.	.	.	.	.	.	.	16dd\Jk	.	.	.
.	16dd\LL	.	16ff\LL	.	.	.	4b\	-bis	.	.
.	16cc\	.	16ee\	.	.	.	.	.	.	.
.	16b\	.	16dd\	.	.	.	.	.	.	.
.	16a\JJ	.	16cc\JJ	.	.	.	.	.	.	.
.	16g/LL	.	16b\LL	.	.	.	4r	.	.	.
.	16f/	.	16a\	.	.	.	.	.	.	.
.	16e/	.	16g\	.	.	.	.	.	.	.
.	16d/JJ	.	16f\JJ	.	.	.	.	.	.	.
!	!	!	!LO:LB:g=original	!	!	!	!LO:LB:g=original	!	!	!
=74	=74	=74	=74	=74	=74	=74	=74	=74	=74	=74
*	*tremolo	*	*	*	*	*	*	*	*	*
2.ryy	8eL 8G/	.	16e/LL	.	2.ryy	2.ryy	16cc\LL	O-	2.ryy	2.ryy
.	.	.	16g/	.	.	.	16b\JJ	.	.	.
.	8e 8G/	.	16cc/	.	.	.	16cc\	-ra	.	.
.	.	.	16g/JJ	.	.	.	16g\	pro	.	.
*	*	*	*rep	*	*	*	*	*	*	*
.	8e 8G/	.	16e/LL	.	.	.	4ee\	no-	.	.
.	.	.	16g/	.	.	.	.	.	.	.
.	8eJ 8G/	.	16cc/	.	.	.	.	.	.	.
.	.	.	16g/JJ	.	.	.	.	.	.	.
*	*Xtremolo	*	*Xrep	*	*	*	*	*	*	*
.	8fL 8G/	.	16f/LL	.	.	.	4ddT\	.	.	.
.	.	.	16g/	.	.	.	.	.	.	.
.	8fJ 8G/	.	16b/	.	.	.	.	.	.	.
.	.	.	16g/JJ	.	.	.	.	.	.	.
!	!LO:LB:g=original	!	!	!	!	!	!	!	!	!
=75	=75	=75	=75	=75	=75	=75	=75	=75	=75	=75
2.ryy	16e/LL	.	4cc\	.	2.ryy	2.ryy	4cc\	-bis	2.ryy	2.ryy
.	16g/	.	.	.	.	.	.	.	.	.
.	16cc/	.	.	.	.	.	.	.	.	.
.	16g/JJ	.	.	.	.	.	.	.	.	.
*	*rep	*	*	*	*	*	*	*	*	*
.	16e/LL	.	16cc\LL	.	.	.	4r	.	.	.
.	16g/	.	16ee\	.	.	.	.	.	.	.
.	16cc/	.	16gg\	.	.	.	.	.	.	.
.	16g/JJ	.	16ccc\JJ	.	.	.	.	.	.	.
*	*Xrep	*	*	*	*	*	*	*	*	*
.	16f/LL	.	16aa\LL	.	.	.	4r	.	.	.
.	16g/	.	16ff\	.	.	.	.	.	.	.
.	16b/	.	16dd\	.	.	.	.	.	.	.
.	16g/JJ	.	16aa\JJ	.	.	.	.	.	.	.
=76	=76	=76	=76	=76	=76	=76	=76	=76	=76	=76
2.ryy	16e/LL	.	4gg\	.	2.ryy	2.ryy	0.r	.	2.ryy	2.ryy
.	16g/	.	.	.	.	.	.	.	.	.
.	16cc/	.	.	.	.	.	.	.	.	.
.	16g/JJ	.	.	.	.	.	.	.	.	.
*	*rep	*	*	*	*	*	*	*	*	*
.	16e/LL	.	16gg\LL	.	.	.	.	.	.	.
.	16g/	.	16ee\	.	.	.	.	.	.	.
.	16cc/	.	16cc\	.	.	.	.	.	.	.
.	16g/JJ	.	16gg\JJ	.	.	.	.	.	.	.
*	*Xrep	*	*	*	*	*	*	*	*	*
.	16f/LL	.	16aa\LL	.	.	.	.	.	.	.
.	16a/	.	16ee\	.	.	.	.	.	.	.
.	16dd/	.	16ff\	.	.	.	.	.	.	.
.	16a/JJ	.	16dd\JJ	.	.	.	.	.	.	.
=77	=77	=77	=77	=77	=77	=77	=77	=77	=77	=77
.	.	.	8qqdd/	.	.	.	.	.	.	.
2.ryy	16e/LL	.	16cc\LL	.	2.ryy	2.ryy	.	.	2.ryy	2.ryy
.	16g/	.	16b\	.	.	.	.	.	.	.
.	16e/	.	16cc\	.	.	.	.	.	.	.
.	16g/JJ	.	16g\JJ	.	.	.	.	.	.	.
*	*rep	*	*	*	*	*	*	*	*	*
.	16e/LL	.	4ee\	.	.	.	.	.	.	.
.	16g/	.	.	.	.	.	.	.	.	.
.	16e/	.	.	.	.	.	.	.	.	.
.	16g/JJ	.	.	.	.	.	.	.	.	.
*	*Xrep	*	*	*	*	*	*	*	*	*
.	16f/LL	.	4dd\	.	.	.	.	.	.	.
.	16g/	.	.	.	.	.	.	.	.	.
.	16f/	.	.	.	.	.	.	.	.	.
.	16g/JJ	.	.	.	.	.	.	.	.	.
=78	=78	=78	=78	=78	=78	=78	=78	=78	=78	=78
2.ryy	16e/LL	.	4cc\	.	2.ryy	2.ryy	.	.	2.ryy	2.ryy
.	16g/	.	.	.	.	.	.	.	.	.
.	16cc/	.	.	.	.	.	.	.	.	.
.	16g/JJ	.	.	.	.	.	.	.	.	.
*	*rep	*	*	*	*	*	*	*	*	*
.	16e/LL	.	16cc\LL	.	.	.	.	.	.	.
.	16g/	.	16ee\	.	.	.	.	.	.	.
.	16cc/	.	16gg\	.	.	.	.	.	.	.
.	16g/JJ	.	16ccc\JJ	.	.	.	.	.	.	.
*	*Xrep	*	*	*	*	*	*	*	*	*
.	16f/LL	.	16aa\LL	.	.	.	.	.	.	.
.	16g/	.	16ff\	.	.	.	.	.	.	.
.	16b/	.	16dd\	.	.	.	.	.	.	.
.	16g/JJ	.	16aa\JJ	.	.	.	.	.	.	.
!	!	!	!LO:LB:g=original	!	!	!	!	!	!	!
=79	=79	=79	=79	=79	=79	=79	=79	=79	=79	=79
2.ryy	16e/LL	.	4gg\	.	2.ryy	2.ryy	.	.	2.ryy	2.ryy
.	16g/	.	.	.	.	.	.	.	.	.
.	16cc/	.	.	.	.	.	.	.	.	.
.	16g/JJ	.	.	.	.	.	.	.	.	.
*	*rep	*	*	*	*	*	*	*	*	*
.	16e/LL	.	16gg\LL	.	.	.	.	.	.	.
.	16g/	.	16ee\	.	.	.	.	.	.	.
.	16cc/	.	16cc\	.	.	.	.	.	.	.
.	16g/JJ	.	16gg\JJ	.	.	.	.	.	.	.
*	*Xrep	*	*	*	*	*	*	*	*	*
.	16f/LL	.	16aa\LL	.	.	.	.	.	.	.
.	16a/	.	16ee\	.	.	.	.	.	.	.
.	16dd/	.	16ff\	.	.	.	.	.	.	.
.	16a/JJ	.	16dd\JJ	.	.	.	.	.	.	.
=80	=80	=80	=80	=80	=80	=80	=80	=80	=80	=80
2.ryy	16e/LL	.	8g/L	.	2.ryy	2.ryy	1.r	.	2.ryy	2.ryy
.	16g/	.	.	.	.	.	.	.	.	.
.	16e/	.	8cc/J	.	.	.	.	.	.	.
.	16g/JJ	.	.	.	.	.	.	.	.	.
.	16f/LL	.	2ddT\	.	.	.	.	.	.	.
.	16g/	.	.	.	.	.	.	.	.	.
.	16f/	.	.	.	.	.	.	.	.	.
.	16g/JJ	.	.	.	.	.	.	.	.	.
*	*rep	*	*	*	*	*	*	*	*	*
.	16f/LL	.	.	.	.	.	.	.	.	.
.	16g/	.	.	.	.	.	.	.	.	.
.	16f/	.	.	.	.	.	.	.	.	.
.	16g/JJ	.	.	.	.	.	.	.	.	.
*	*Xrep	*	*	*	*	*	*	*	*	*
=81	=81	=81	=81	=81	=81	=81	=81	=81	=81	=81
!	!	!	!LO:TX:t=P:problem=mixed beam	!	!	!	!	!	!	!
2.ryy	8.eL 8.G/	.	8.cc\L	.	2.ryy	2.ryy	.	.	2.ryy	2.ryy
.	16c/Jk	.	16c/Jk	.	.	.	.	.	.	.
.	4c/	.	4c/	.	.	.	.	.	.	.
!	!	!	!LO:TX:b:i:t=Mater Christi Volti	!	!	!	!	!	!	!
.	4r	.	4r	.	.	.	.	.	.	.
==	==	==	==	==	==	==	==	==	==	==
*-	*-	*-	*-	*-	*-	*-	*-	*-	*-	*-
!!!system-decoration: [(g1)][(g2)][(g3)]<s8>
!!!RDF**kern: | = vertical stroke
!!!RDF**dynam: f = "f."
!!!RDF**dynam: p = "p."
!!!ENC: Filip Voros
!!!END: 2021-11-17
!!!ENC: Andrzej Kubiczek
!!!END: 2022-02-02
